assets/icons/svg/icon_viewport_sprite.svg

<?xml version="1.0" encoding="UTF-8" standalone="no"?>
<!-- Created with Inkscape (http://www.inkscape.org/) -->

<svg
   xmlns:dc="http://purl.org/dc/elements/1.1/"
   xmlns:cc="http://creativecommons.org/ns#"
   xmlns:rdf="http://www.w3.org/1999/02/22-rdf-syntax-ns#"
   xmlns:svg="http://www.w3.org/2000/svg"
   xmlns="http://www.w3.org/2000/svg"
   xmlns:sodipodi="http://sodipodi.sourceforge.net/DTD/sodipodi-0.dtd"
   xmlns:inkscape="http://www.inkscape.org/namespaces/inkscape"
   width="16"
   height="16"
   viewBox="0 0 16 16"
   id="svg2"
   version="1.1"
   inkscape:version="0.91 r13725"
   inkscape:export-filename="/home/djrm/Projects/godot/tools/editor/icons/icon_sprite.png"
   inkscape:export-xdpi="45"
   inkscape:export-ydpi="45"
   sodipodi:docname="icon_viewport_sprite.svg">
  <defs
     id="defs4" />
  <sodipodi:namedview
     id="base"
     pagecolor="#ffffff"
     bordercolor="#666666"
     borderopacity="1.0"
     inkscape:pageopacity="0.0"
     inkscape:pageshadow="2"
     inkscape:zoom="45.254834"
     inkscape:cx="6.9421446"
     inkscape:cy="7.9109534"
     inkscape:document-units="px"
     inkscape:current-layer="layer1"
     showgrid="true"
     units="px"
     inkscape:snap-bbox="true"
     inkscape:bbox-paths="true"
     inkscape:bbox-nodes="true"
     inkscape:snap-bbox-edge-midpoints="true"
     inkscape:snap-bbox-midpoints="true"
     inkscape:snap-object-midpoints="true"
     inkscape:snap-center="true"
     inkscape:window-width="1920"
     inkscape:window-height="1016"
     inkscape:window-x="0"
     inkscape:window-y="27"
     inkscape:window-maximized="1"
     inkscape:snap-smooth-nodes="true"
     inkscape:object-nodes="true"
     inkscape:snap-intersection-paths="true">
    <inkscape:grid
       type="xygrid"
       id="grid3336" />
  </sodipodi:namedview>
  <metadata
     id="metadata7">
    <rdf:RDF>
      <cc:Work
         rdf:about="">
        <dc:format>image/svg+xml</dc:format>
        <dc:type
           rdf:resource="http://purl.org/dc/dcmitype/StillImage" />
        <dc:title />
      </cc:Work>
    </rdf:RDF>
  </metadata>
  <g
     inkscape:label="Layer 1"
     inkscape:groupmode="layer"
     id="layer1"
     transform="translate(0,-1036.3622)">
    <rect
       style="opacity:1;fill:#fefeff;fill-opacity:1;stroke:none;stroke-width:2;stroke-linecap:butt;stroke-linejoin:bevel;stroke-miterlimit:4;stroke-dasharray:none;stroke-dashoffset:0;stroke-opacity:0.99607843"
       id="rect4175"
       width="1"
       height="1"
       x="20"
       y="1042.3622" />
    <rect
       y="1042.3622"
       x="29"
       height="1"
       width="1"
       id="rect4177"
       style="opacity:1;fill:#fefeff;fill-opacity:1;stroke:none;stroke-width:2;stroke-linecap:butt;stroke-linejoin:bevel;stroke-miterlimit:4;stroke-dasharray:none;stroke-dashoffset:0;stroke-opacity:0.99607843" />
    <path
       style="opacity:1;fill:#a5b7f8;fill-opacity:0.98823529;stroke:none;stroke-width:2;stroke-linecap:butt;stroke-linejoin:bevel;stroke-miterlimit:4;stroke-dasharray:none;stroke-dashoffset:0;stroke-opacity:0.99607843"
       d="M 3,2 C 2.4695977,2.0000801 1.9609485,2.2108464 1.5859375,2.5859375 1.2108464,2.9609485 1.0000801,3.4695977 1,4 l 0,8 c 8.03e-5,0.530402 0.2108465,1.039051 0.5859375,1.414062 C 1.9609484,13.789153 2.4695976,13.99992 3,14 l 10,0 c 1.104569,0 2,-0.895431 2,-2 L 15,4 C 15,2.8954305 14.104569,2 13,2 Z m 0,1 10,0 c 0.552281,9.6e-6 0.99999,0.4477192 1,1 l 0,8 c -10e-6,0.552281 -0.447719,0.99999 -1,1 L 3,13 C 2.4477192,12.99999 2.0000096,12.552281 2,12 L 2,4 c 9.6e-6,-0.5522808 0.4477192,-0.9999904 1,-1 z"
       transform="translate(0,1036.3622)"
       id="rect4179"
       inkscape:connector-curvature="0"
       sodipodi:nodetypes="ccccccsssscccccccccc" />
    <rect
       style="opacity:1;fill:#a5b7f8;fill-opacity:0.98823529;stroke:none;stroke-width:4;stroke-linecap:butt;stroke-linejoin:round;stroke-miterlimit:4;stroke-dasharray:none;stroke-dashoffset:0;stroke-opacity:1"
       id="rect4213"
       width="2"
       height="1.9999826"
       x="4"
       y="1042.3622" />
    <rect
       y="1042.3622"
       x="10"
       height="1.9999826"
       width="2"
       id="rect4215"
       style="opacity:1;fill:#a5b7f8;fill-opacity:0.98823529;stroke:none;stroke-width:4;stroke-linecap:butt;stroke-linejoin:round;stroke-miterlimit:4;stroke-dasharray:none;stroke-dashoffset:0;stroke-opacity:1" />
    <rect
       y="1045.3622"
       x="4"
       height="1.0000174"
       width="8"
       id="rect4217"
       style="opacity:1;fill:#a5b7f8;fill-opacity:0.98823529;stroke:none;stroke-width:4;stroke-linecap:butt;stroke-linejoin:round;stroke-miterlimit:4;stroke-dasharray:none;stroke-dashoffset:0;stroke-opacity:1" />
  </g>
</svg>

<?xml version="1.0" encoding="UTF-8" standalone="no"?>
<!-- Created with Inkscape (http://www.inkscape.org/) -->

<svg
   xmlns:dc="http://purl.org/dc/elements/1.1/"
   xmlns:cc="http://creativecommons.org/ns#"
   xmlns:rdf="http://www.w3.org/1999/02/22-rdf-syntax-ns#"
   xmlns:svg="http://www.w3.org/2000/svg"
   xmlns="http://www.w3.org/2000/svg"
   xmlns:sodipodi="http://sodipodi.sourceforge.net/DTD/sodipodi-0.dtd"
   xmlns:inkscape="http://www.inkscape.org/namespaces/inkscape"
   width="16"
   height="16"
   viewBox="0 0 16 16"
   id="svg2"
   version="1.1"
   inkscape:version="0.92+devel unknown"
   inkscape:export-filename="/home/djrm/Projects/godot/tools/editor/icons/icon_sprite.png"
   inkscape:export-xdpi="45"
   inkscape:export-ydpi="45"
   sodipodi:docname="icon_viewport_sprite.svg">
  <defs
     id="defs4" />
  <sodipodi:namedview
     id="base"
     pagecolor="#ffffff"
     bordercolor="#666666"
     borderopacity="1.0"
     inkscape:pageopacity="0.0"
     inkscape:pageshadow="2"
     inkscape:zoom="45.254834"
     inkscape:cx="6.9421446"
     inkscape:cy="7.9109534"
     inkscape:document-units="px"
     inkscape:current-layer="layer1"
     showgrid="true"
     units="px"
     inkscape:snap-bbox="true"
     inkscape:bbox-paths="true"
     inkscape:bbox-nodes="true"
     inkscape:snap-bbox-edge-midpoints="true"
     inkscape:snap-bbox-midpoints="true"
     inkscape:snap-object-midpoints="true"
     inkscape:snap-center="true"
     inkscape:window-width="1920"
     inkscape:window-height="1016"
     inkscape:window-x="0"
     inkscape:window-y="27"
     inkscape:window-maximized="1"
     inkscape:snap-smooth-nodes="true"
     inkscape:object-nodes="true"
     inkscape:snap-intersection-paths="true"
     inkscape:document-rotation="0">
    <inkscape:grid
       type="xygrid"
       id="grid3336" />
  </sodipodi:namedview>
  <metadata
     id="metadata7">
    <rdf:RDF>
      <cc:Work
         rdf:about="">
        <dc:format>image/svg+xml</dc:format>
        <dc:type
           rdf:resource="http://purl.org/dc/dcmitype/StillImage" />
        <dc:title />
      </cc:Work>
    </rdf:RDF>
  </metadata>
  <g
     inkscape:label="Layer 1"
     inkscape:groupmode="layer"
     id="layer1"
     transform="translate(0,-1036.3622)">
    <rect
       style="opacity:1;fill:#fefeff;fill-opacity:1;stroke:none;stroke-width:2;stroke-linecap:butt;stroke-linejoin:bevel;stroke-miterlimit:4;stroke-dasharray:none;stroke-dashoffset:0;stroke-opacity:0.99607843"
       id="rect4175"
       width="1"
       height="1"
       x="20"
       y="1042.3622" />
    <rect
       y="1042.3622"
       x="29"
       height="1"
       width="1"
       id="rect4177"
       style="opacity:1;fill:#fefeff;fill-opacity:1;stroke:none;stroke-width:2;stroke-linecap:butt;stroke-linejoin:bevel;stroke-miterlimit:4;stroke-dasharray:none;stroke-dashoffset:0;stroke-opacity:0.99607843" />
    <path
       style="opacity:1;fill:#a5b7f3;fill-opacity:0.98823529;stroke:none;stroke-width:2;stroke-linecap:butt;stroke-linejoin:bevel;stroke-miterlimit:4;stroke-dasharray:none;stroke-dashoffset:0;stroke-opacity:0.99607843"
       d="M 3 2 C 2.4695977 2.0000801 1.9609485 2.2108464 1.5859375 2.5859375 C 1.2108464 2.9609485 1.0000801 3.4695977 1 4 L 1 12 C 1.0000803 12.530402 1.2108465 13.039051 1.5859375 13.414062 C 1.9609484 13.789154 2.4695976 13.99992 3 14 L 13 14 C 14.104569 14 15 13.104569 15 12 L 15 4 C 15 2.8954305 14.104569 2 13 2 L 3 2 z M 3 3 L 13 3 C 13.552281 3.0000096 13.99999 3.4477192 14 4 L 14 12 C 13.99999 12.552281 13.552281 12.99999 13 13 L 3 13 C 2.4477192 12.99999 2.0000096 12.552281 2 12 L 2 4 C 2.0000096 3.4477192 2.4477192 3.0000096 3 3 z M 4 6 L 4 8 L 6 8 L 6 6 L 4 6 z M 10 6 L 10 8 L 12 8 L 12 6 L 10 6 z M 4 9 L 4 10 L 12 10 L 12 9 L 4 9 z "
       transform="translate(0,1036.3622)"
       id="rect4179" />
  </g>
</svg>
